src/assets/images/landing/icons/info_icon.svg

<svg width="51" height="52" viewBox="0 0 51 52" fill="none" xmlns="http://www.w3.org/2000/svg">
<rect x="0.816406" y="1.49243" width="49.1182" height="49.3404" rx="24.5591" fill="#383339" stroke="url(#paint0_radial_1396_2)"/>
<path d="M22.0586 23.7097V25.4832H24.4648V30.3972H22.0586V32.1628H28.9492V30.3972H26.6602V23.7097H22.0586ZM24.3086 21.5457C24.3086 21.7123 24.3372 21.8686 24.3945 22.0144C24.457 22.155 24.543 22.2748 24.6523 22.3738C24.7617 22.4779 24.8919 22.5587 25.043 22.616C25.1992 22.6733 25.3711 22.7019 25.5586 22.7019C25.944 22.7019 26.2487 22.5951 26.4727 22.3816C26.7018 22.1628 26.8164 21.8842 26.8164 21.5457C26.8164 21.2071 26.7018 20.9311 26.4727 20.7175C26.2487 20.4988 25.944 20.3894 25.5586 20.3894C25.3711 20.3894 25.1992 20.4181 25.043 20.4753C24.8919 20.5326 24.7617 20.6108 24.6523 20.7097C24.543 20.8139 24.457 20.9389 24.3945 21.0847C24.3372 21.2253 24.3086 21.379 24.3086 21.5457Z" fill="white"/>
<defs>
<radialGradient id="paint0_radial_1396_2" cx="0" cy="0" r="1" gradientUnits="userSpaceOnUse" gradientTransform="translate(25.3755 26.1626) rotate(90) scale(25.1702 25.0591)">
<stop stop-color="white"/>
<stop offset="1" stop-color="white" stop-opacity="0"/>
</radialGradient>
</defs>
</svg>

<svg xmlns="http://www.w3.org/2000/svg" width="51" height="52" fill="none"><rect width="49.118" height="49.34" x=".816" y="1.492" fill="#383339" stroke="url(#a)" rx="24.559"/><path fill="#fff" d="M22.059 23.71v1.773h2.406v4.914h-2.406v1.766h6.89v-1.766H26.66V23.71zm2.25-2.164q0 .25.085.468.095.21.258.36.165.156.391.242.234.086.516.086.578 0 .914-.32.343-.33.343-.836a1.08 1.08 0 0 0-.343-.828q-.336-.33-.914-.329-.282.001-.516.086a1.2 1.2 0 0 0-.39.235q-.165.156-.258.375a1.2 1.2 0 0 0-.086.46"/><defs><radialGradient id="a" cx="0" cy="0" r="1" gradientTransform="matrix(0 25.1702 -25.0591 0 25.375 26.163)" gradientUnits="userSpaceOnUse"><stop stop-color="#fff"/><stop offset="1" stop-color="#fff" stop-opacity="0"/></radialGradient></defs></svg>
